X:1033
T:Three Meet
M:6/8
R:Jig
L:1/8
S:Colin Hume's website,  colinhume.com  - chords can also be printed below the stave.
Q:3/8=110
C:Traditional English
N:For the dance collected by Cecil Sharp
K:D
P:A
|: A | "D"F2A d2A | "Em"B2B e2d | "A7"d2d cBc | "D"d2d f2A |\
"D"F2A d2A | "Em"B2B e2d | "A7"d2d cBc | "D"d3 d2 :|
P:B
|: z | "D"f2a "A/C#"e2a | "Bm"fed "A"cBA | "Bm"d2d "A7/C#"ede | "D"faf "A"e3 |\
"D"d'3 "A"a3 | "G"g3 "D"f3 | "A"ede "D"fed | "Em"B2"(A7)"c "D"d2 :|

